X: 36
T: The Long Room in Scarborough
C: Traditional
O: England
R: slip jig
M: 9/8
L: 1/8
K: Gmaj
|:"G" G2G GBG Bcd|G2G GBG "D" AFD|"G" G2G GBG Bcd|"C" E2E EFG "D" AFD:|
|:"G" g2g gag "D" fed|"G" gfg "C" efg "D" afd|"G" g2g gag "D" fed|"C" efg "G" dcB "D" AFD:|
|:"G" B2B BGB "C" c2d|"G" B2B BGB "D" AFD|"G" B2B BGB "C" c2d|E2E EFG "D" AFD:|

